web/themes/custom/surf_main/images/icons/search.svg

<svg enable-background="new 0 0 16 16" height="16" viewBox="0 0 16 16" width="16" xmlns="http://www.w3.org/2000/svg"><path d="m16 14.8c0 .3-.1.6-.4.9-.2.2-.5.4-.9.4-.3 0-.6-.1-.9-.4l-3.3-3.3c-1.1.8-2.4 1.2-3.8 1.2-.9 0-1.8-.2-2.6-.5-.8-.4-1.6-.8-2.2-1.4s-1.1-1.3-1.4-2.2c-.3-.9-.5-1.8-.5-2.7s.2-1.8.5-2.7c.4-.8.9-1.5 1.5-2.1s1.3-1.1 2.2-1.4c.8-.4 1.7-.6 2.6-.6s1.8.2 2.6.5c.8.4 1.6.9 2.2 1.5s1.1 1.3 1.4 2.2c.4.8.5 1.7.5 2.6 0 1.4-.4 2.7-1.2 3.8l3.3 3.3c.3.2.4.5.4.9zm-6.2-5c.8-.8 1.3-1.9 1.3-3 0-1.2-.4-2.2-1.3-3-.8-.9-1.8-1.3-3-1.3s-2.2.4-3 1.3c-.8.8-1.3 1.9-1.3 3 0 1.2.4 2.2 1.3 3s1.9 1.3 3 1.3c1.2 0 2.2-.4 3-1.3z"/></svg>

<?xml version="1.0" encoding="utf-8"?>
<!-- Generator: Adobe Illustrator 19.1.0, SVG Export Plug-In . SVG Version: 6.00 Build 0)  -->
<svg version="1.1" id="Layer_1" xmlns="http://www.w3.org/2000/svg" xmlns:xlink="http://www.w3.org/1999/xlink" x="0px" y="0px"
	 width="16px" height="16px" viewBox="0 0 16 16" enable-background="new 0 0 16 16" xml:space="preserve">
<g>
	<path d="M16,14.8c0,0.3-0.1,0.6-0.4,0.9c-0.2,0.2-0.5,0.4-0.9,0.4c-0.3,0-0.6-0.1-0.9-0.4l-3.3-3.3
		c-1.1,0.8-2.4,1.2-3.8,1.2c-0.9,0-1.8-0.2-2.6-0.5c-0.8-0.4-1.6-0.8-2.2-1.4s-1.1-1.3-1.4-2.2C0.2,8.6,0,7.7,0,6.8
		C0,5.9,0.2,5,0.5,4.1C0.9,3.3,1.4,2.6,2,2s1.3-1.1,2.2-1.4C5,0.2,5.9,0,6.8,0c0.9,0,1.8,0.2,2.6,0.5C10.2,0.9,11,1.4,11.6,2
		s1.1,1.3,1.4,2.2c0.4,0.8,0.5,1.7,0.5,2.6c0,1.4-0.4,2.7-1.2,3.8l3.3,3.3C15.9,14.1,16,14.4,16,14.8z M9.8,9.8
		c0.8-0.8,1.3-1.9,1.3-3c0-1.2-0.4-2.2-1.3-3C9,2.9,8,2.5,6.8,2.5c-1.2,0-2.2,0.4-3,1.3c-0.8,0.8-1.3,1.9-1.3,3c0,1.2,0.4,2.2,1.3,3
		s1.9,1.3,3,1.3C8,11.1,9,10.7,9.8,9.8z"/>
</g>
</svg>
